svg/color/bch.svg

<svg width="64" height="65" viewBox="0 0 64 65" fill="none" xmlns="http://www.w3.org/2000/svg">
<rect y="0.303711" width="64" height="64" rx="32" fill="#0AC18E"/>
<rect x="0.5" y="0.803711" width="63" height="63" rx="31.5" stroke="#070B14" stroke-opacity="0.15"/>
<path d="M41.9819 21.5585C40.3737 17.9118 36.6783 17.1321 32.1544 17.8875L30.7006 12.2509L27.2732 13.1362L28.7027 18.7565C27.8011 18.9839 26.8753 19.1788 25.9575 19.4387L24.528 13.8509L21.1006 14.7362L22.5544 20.3727C21.8154 20.5839 15.6346 22.1677 15.6346 22.1677L16.5768 25.8387C16.5768 25.8387 19.0945 25.1321 19.0702 25.189C20.4671 24.8235 21.125 25.522 21.4336 26.1798L25.4296 41.6276C25.4783 42.0743 25.3971 42.8377 24.4387 43.0976C24.4956 43.1301 21.9453 43.7392 21.9453 43.7392L22.3189 48.0194C22.3189 48.0194 28.4428 46.4519 29.2468 46.2489L30.7169 51.9504L34.1443 51.0651L32.6742 45.323C33.6164 45.1037 34.5341 44.8763 35.4275 44.6408L36.8895 50.3504L40.3169 49.4651L38.8468 43.7717C44.126 42.4885 47.8539 39.1585 47.0905 34.0661C46.6032 30.9961 43.2489 28.4783 40.4631 28.1941C42.1768 26.6753 43.0458 24.458 41.9819 21.5585ZM40.3331 35.0002C41.0154 40.0438 34.0062 40.6611 31.6915 41.2702L29.6773 33.725C32.0001 33.1159 39.1798 30.5575 40.3331 35.0002ZM36.1098 24.726C36.8326 29.2093 30.8387 29.7291 28.9057 30.2245L27.0702 23.3778C29.0113 22.8986 34.6397 20.5758 36.1098 24.726Z" fill="white"/>
</svg>

<svg xmlns="http://www.w3.org/2000/svg" width="64" height="65" fill="none" viewBox="0 0 64 65"><rect width="64" height="64" y=".304" fill="#0AC18E" rx="32"/><rect width="63" height="63" x=".5" y=".804" stroke="#070B14" stroke-opacity=".15" rx="31.5"/><path fill="#fff" d="M41.982 21.559c-1.608-3.647-5.304-4.427-9.828-3.672l-1.453-5.636-3.428.885 1.43 5.62c-.902.228-1.828.423-2.745.683l-1.43-5.588-3.427.885 1.453 5.637c-.739.21-6.92 1.795-6.92 1.795l.943 3.67s2.517-.706 2.493-.649c1.397-.366 2.055.333 2.364.99l3.996 15.449c.048.446-.033 1.21-.991 1.47.057.032-2.494.641-2.494.641l.374 4.28s6.124-1.567 6.928-1.77l1.47 5.701 3.427-.885-1.47-5.742q1.413-.33 2.754-.682l1.462 5.71 3.427-.886-1.47-5.693c5.279-1.283 9.007-4.614 8.243-9.706-.487-3.07-3.841-5.588-6.627-5.872 1.714-1.519 2.583-3.736 1.519-6.635M40.333 35c.682 5.044-6.327 5.661-8.641 6.27l-2.015-7.545C32 33.115 39.18 30.557 40.333 35M36.11 24.726c.723 4.483-5.271 5.003-7.204 5.499l-1.836-6.847c1.941-.48 7.57-2.802 9.04 1.348"/></svg>
